X:1
T:Title
%%score ( 1 2 ) { 3 | 4 }
L:1/8
Q:1/4=106
M:4/4
K:D
V:1 treble nm="Grand Piano, Soprano"
V:2 treble 
V:3 treble nm="Choir Pad, Bovey, 886 D"
V:4 bass 
V:1
 z4 .B2 z2 | [Ee]2 [Fd]2 [Ec]2 [Fd]2 | [Fd]2 [Fc]2 [DB]2 [DA]2 | [DB]2 [FA]2 [EG]2 [DF]2 | %4
 E2 D-[DG] [CA][DB] [Ec]2 | B-[DB] [CA]6 | [EA]2 [Ee]2 dc [Dd]2 | D2 [DE]2 [DF]2 [DG]2 | %8
 [B,D]2 [=CE]2 [CF]2 [B,G]2 | [^DF]2 [EG]2 [FA]2 [GB]2 | [Gc]2 [Fd]2 [Ee]2 [Fd]2 | [Ec]2 [Fd]6- | %12
 [Fd]2 z2 z4 |] %13
V:2
 [DF][EG] [FA]2 F-[Fc] [Fd]2 | x8 | x8 | x8 | z2 .F2 z4 | .E2 z2 z4 | z4 E2 z2 | x8 | x8 | x8 | %10
 x8 | x8 | x8 |] %13
V:3
 D2 D2 E2 D2 | B,2[K:bass] A,2 A,2 A,2 | B,2 A,2 G,2 A,2 | D2 D2 DC D2 | A,2 DB, A,2 A,2 | %5
 ^G,2 A,6 | C2 C2 A,2 A,2 | F,2 G,2 A,2 G,2 | G,2 G,2 A,2 G,2 | B,2 B,2[K:treble] D2 D2 | %10
 E2 D2 B,2[K:bass] A,2 | A,2 A,6- | A,2 z2 z4 |] %13
V:4
 D,2 D,2 C,2 B,,2 | G,,2 A,,2 A,,2 D,2 | B,,2 F,2 z2 F,2 | G,2 A,2 A,,2 D,2 | C,2 D,E, F,2 E,2 | %5
 E,2 z2 z4 | A,2 A,2 G,2 F,2 | D,2 D,2 =C,2 B,,2 | G,,2 =C,2 A,,2 E,2 | B,,2 E,2 D,2 G,2 | %10
 E,2 B,2 G,2 z2 | A,,2 D,6- | D,2 z2 z4 |] %13

